X:311
T:Danza Prima
R:Danza Prima
C:Tradicional
S:Msica Tradicional Asturiana, (C) Tello & Tito. Asturies, 2001.
S:http://pagina.de/MusTradAst <telloytito@asturies.org>
A:Asturies
O:Ayer
Z:ByD IDEA
M:2/8
L:1/8
Q:1/8=170
K:Dm
|A A|A A|G F|G C|G C|G C|G G|G G|F E|F E|D2|E2|F E/D/|E ^C|D2|E2|F E/D/|E ^C|D2|
